Sources/FrostedUI/Resources/Icons.xcassets/closedCaptions32.imageset/closed-captions-32.svg

<svg width="32" height="32" viewBox="0 0 32 32" fill="none" xmlns="http://www.w3.org/2000/svg" data-fui-icon="true">
  <path
    d="M28.4444 6.21667C28.9333 6.21667 29.3333 6.61667 29.3333 7.10556V24.8833C29.3333 25.3722 28.9333 25.7722 28.4444 25.7722H3.55556C3.06667 25.7722 2.66667 25.3722 2.66667 24.8833V7.10556C2.66667 6.61667 3.06667 6.21667 3.55556 6.21667H28.4444ZM3.55556 3.55C1.59444 3.55 0 5.14444 0 7.10556V24.8833C0 26.8444 1.59444 28.4389 3.55556 28.4389H28.4444C30.4056 28.4389 32 26.8444 32 24.8833V7.10556C32 5.14444 30.4056 3.55 28.4444 3.55H3.55556ZM11.1111 13.3278C11.9 13.3278 12.6111 13.6667 13.1 14.2167C13.5889 14.7667 14.4333 14.8111 14.9833 14.3222C15.5333 13.8333 15.5778 12.9889 15.0889 12.4389C14.1167 11.35 12.6944 10.6611 11.1167 10.6611C8.17222 10.6611 5.78333 13.05 5.78333 15.9944C5.78333 18.9389 8.17222 21.3278 11.1167 21.3278C12.6944 21.3278 14.1167 20.6389 15.0889 19.55C15.5778 19 15.5333 18.1611 14.9833 17.6667C14.4333 17.1722 13.5944 17.2222 13.1 17.7722C12.6111 18.3222 11.9 18.6611 11.1111 18.6611C9.63889 18.6611 8.44444 17.4667 8.44444 15.9944C8.44444 14.5222 9.63889 13.3278 11.1111 13.3278ZM19.1111 15.9944C19.1111 14.5222 20.3056 13.3278 21.7778 13.3278C22.5667 13.3278 23.2778 13.6667 23.7667 14.2167C24.2556 14.7667 25.1 14.8111 25.65 14.3222C26.2 13.8333 26.2444 12.9889 25.7556 12.4389C24.7833 11.35 23.3611 10.6611 21.7833 10.6611C18.8389 10.6611 16.45 13.05 16.45 15.9944C16.45 18.9389 18.8389 21.3278 21.7833 21.3278C23.3611 21.3278 24.7833 20.6389 25.7556 19.55C26.2444 19 26.2 18.1611 25.65 17.6667C25.1 17.1722 24.2611 17.2222 23.7667 17.7722C23.2778 18.3222 22.5667 18.6611 21.7778 18.6611C20.3056 18.6611 19.1111 17.4667 19.1111 15.9944Z"
    fill="currentColor"
  />
</svg>

<svg xmlns="http://www.w3.org/2000/svg" width="32" height="32" fill="none" data-fui-icon="true" viewBox="0 0 32 32"><path fill="currentColor" d="M28.444 6.217c.49 0 .89.4.89.889v17.777c0 .49-.4.89-.89.89H3.556a.89.89 0 0 1-.89-.89V7.106c0-.49.4-.89.89-.89zM3.556 3.55A3.56 3.56 0 0 0 0 7.106v17.777a3.56 3.56 0 0 0 3.556 3.556h24.888A3.56 3.56 0 0 0 32 24.883V7.106a3.56 3.56 0 0 0-3.556-3.556zm7.555 9.778c.789 0 1.5.339 1.989.889a1.335 1.335 0 0 0 1.989-1.778 5.32 5.32 0 0 0-3.972-1.778 5.335 5.335 0 0 0-5.334 5.333 5.335 5.335 0 0 0 5.334 5.334c1.577 0 3-.69 3.972-1.778a1.335 1.335 0 0 0-1.989-1.778 2.667 2.667 0 1 1-1.989-4.444m8 2.666a2.667 2.667 0 0 1 4.656-1.777 1.335 1.335 0 0 0 1.989-1.778 5.32 5.32 0 0 0-3.973-1.778 5.335 5.335 0 0 0-5.333 5.333 5.335 5.335 0 0 0 5.333 5.334c1.578 0 3-.69 3.973-1.778a1.335 1.335 0 0 0-.106-1.883 1.33 1.33 0 0 0-1.883.105 2.667 2.667 0 0 1-4.656-1.778"/></svg>
